Dominus_Funeral/22/apps/tvtime.svg

<svg xmlns="http://www.w3.org/2000/svg" width="24" height="24" version="1"><path d="M6.873 1.323l-.78.78L12 8.01l5.907-5.907-.78-.78L12 6.45zM5.38 8.333a2.202 2.202 0 0 0-2.207 2.207v9.93c0 1.223.984 2.207 2.207 2.207h13.24a2.202 2.202 0 0 0 2.207-2.207v-9.93a2.202 2.202 0 0 0-2.207-2.207zm1.103 2.207h8.827a1.1 1.1 0 0 1 1.103 1.103v7.724a1.1 1.1 0 0 1-1.103 1.103H6.483a1.1 1.1 0 0 1-1.103-1.103v-7.724a1.1 1.1 0 0 1 1.103-1.103zm11.585 0a.552.552 0 0 1 0 1.103h-.038a.551.551 0 0 1 .039-1.1zm0 2.207a.552.552 0 1 1 0 1.103.552.552 0 0 1 0-1.103z" class="ColorScheme-Text" color="#090d11" fill="#1a1a1a" fill-opacity=".996"/></svg>

<?xml version="1.0" encoding="UTF-8" standalone="no"?>
<svg
   xmlns:dc="http://purl.org/dc/elements/1.1/"
   xmlns:cc="http://creativecommons.org/ns#"
   xmlns:rdf="http://www.w3.org/1999/02/22-rdf-syntax-ns#"
   xmlns:svg="http://www.w3.org/2000/svg"
   xmlns="http://www.w3.org/2000/svg"
   xmlns:sodipodi="http://sodipodi.sourceforge.net/DTD/sodipodi-0.dtd"
   xmlns:inkscape="http://www.inkscape.org/namespaces/inkscape"
   width="24"
   height="24"
   version="1"
   id="svg4"
   sodipodi:docname="tvtime.svg"
   inkscape:version="0.92.4 (5da689c313, 2019-01-14)">
  <metadata
     id="metadata10">
    <rdf:RDF>
      <cc:Work
         rdf:about="">
        <dc:format>image/svg+xml</dc:format>
        <dc:type
           rdf:resource="http://purl.org/dc/dcmitype/StillImage" />
        <dc:title></dc:title>
      </cc:Work>
    </rdf:RDF>
  </metadata>
  <defs
     id="defs8" />
  <sodipodi:namedview
     pagecolor="#ffffff"
     bordercolor="#666666"
     borderopacity="1"
     objecttolerance="10"
     gridtolerance="10"
     guidetolerance="10"
     inkscape:pageopacity="0"
     inkscape:pageshadow="2"
     inkscape:window-width="1138"
     inkscape:window-height="480"
     id="namedview6"
     showgrid="false"
     inkscape:zoom="9.8333333"
     inkscape:cx="1.0677966"
     inkscape:cy="12"
     inkscape:window-x="0"
     inkscape:window-y="25"
     inkscape:window-maximized="0"
     inkscape:current-layer="svg4" />
  <path
     d="M 6.873,1.323 6.093,2.103 12,8.01 17.907,2.103 17.127,1.323 12,6.45 Z M 5.38,8.333 A 2.202,2.202 0 0 0 3.173,10.54 v 9.93 c 0,1.223 0.984,2.207 2.207,2.207 H 18.62 A 2.202,2.202 0 0 0 20.827,20.47 V 10.54 A 2.202,2.202 0 0 0 18.62,8.333 Z m 1.103,2.207 h 8.827 a 1.1,1.1 0 0 1 1.103,1.103 v 7.724 A 1.1,1.1 0 0 1 15.31,20.47 H 6.483 A 1.1,1.1 0 0 1 5.38,19.367 V 11.643 A 1.1,1.1 0 0 1 6.483,10.54 Z m 11.585,0 a 0.552,0.552 0 0 1 0,1.103 H 18.03 a 0.551,0.551 0 0 1 0.039,-1.1 z m 0,2.207 a 0.552,0.552 0 1 1 0,1.103 0.552,0.552 0 0 1 0,-1.103 z"
     class="ColorScheme-Text"
     id="path2"
     inkscape:connector-curvature="0"
     style="color:#090d11;fill:#1a1a1a;fill-opacity:0.99599998" />
</svg>
